icons/24/inbox.svg

<svg width="24" height="24" viewBox="0 0 24 24" xmlns="http://www.w3.org/2000/svg">
  <path fill-rule="evenodd" clip-rule="evenodd" d="M5.803 3.967C5.94838 3.67642 6.17178 3.43206 6.44818 3.26127C6.72459 3.09048 7.04309 3.00001 7.368 3H16.634C17.295 3 17.899 3.372 18.197 3.962L21.92 11.35C21.9727 11.4549 22.0001 11.5706 22 11.688V18.25C22 18.7141 21.8156 19.1592 21.4874 19.4874C21.1592 19.8156 20.7141 20 20.25 20H3.75C3.28587 20 2.84075 19.8156 2.51256 19.4874C2.18437 19.1592 2 18.7141 2 18.25V11.75C2.00032 11.6336 2.02771 11.5189 2.08 11.415L5.803 3.967ZM7.368 4.5C7.32153 4.49991 7.27595 4.51277 7.23638 4.53715C7.19681 4.56153 7.16482 4.59645 7.144 4.638L3.964 11H8C8.1311 11 8.25992 11.0343 8.37362 11.0996C8.48732 11.1648 8.58192 11.2588 8.648 11.372L10.18 14H13.818L15.351 11.372C15.4164 11.2599 15.5097 11.1667 15.6219 11.1015C15.7341 11.0363 15.8613 11.0013 15.991 11L20.038 10.952L16.856 4.637C16.8351 4.59579 16.8032 4.56117 16.7639 4.53699C16.7245 4.5128 16.6792 4.5 16.633 4.5H7.368ZM20.5 12.447L16.434 12.495L14.898 15.128C14.8319 15.2412 14.7373 15.3352 14.6236 15.4004C14.5099 15.4657 14.3811 15.5 14.25 15.5H9.75C9.6189 15.5 9.49008 15.4657 9.37638 15.4004C9.26268 15.3352 9.16808 15.2412 9.102 15.128L7.57 12.5H3.5V18.25C3.5 18.388 3.612 18.5 3.75 18.5H20.25C20.3163 18.5 20.3799 18.4737 20.4268 18.4268C20.4737 18.3799 20.5 18.3163 20.5 18.25V12.447Z"/>
</svg>

<svg width="24" height="24" viewBox="0 0 24 24" xmlns="http://www.w3.org/2000/svg">
  <path fill-rule="evenodd" clip-rule="evenodd" d="M5.803 3.967A1.75 1.75 0 017.368 3h9.266a1.75 1.75 0 011.563.962l3.723 7.388a.75.75 0 01.08.338v6.562A1.75 1.75 0 0120.25 20H3.75A1.75 1.75 0 012 18.25v-6.5a.75.75 0 01.08-.335l3.723-7.448zm1.565.533a.25.25 0 00-.224.138L3.964 11H8a.75.75 0 01.648.372L10.18 14h3.638l1.533-2.628a.75.75 0 01.64-.372l4.047-.048-3.182-6.315a.25.25 0 00-.223-.137H7.368zM20.5 12.447l-4.066.048-1.536 2.633a.75.75 0 01-.648.372h-4.5a.75.75 0 01-.648-.372L7.57 12.5H3.5v5.75c0 .138.112.25.25.25h16.5a.25.25 0 00.25-.25v-5.803z"/>
</svg>
